export.svg

<svg fill="currentColor" viewBox="0 0 24 24"><path d="m23 12-4-4v3h-9v2h9v3M1 18V6a2 2 0 0 1 2-2h12a2 2 0 0 1 2 2v3h-2V6H3v12h12v-3h2v3a2 2 0 0 1-2 2H3a2 2 0 0 1-2-2"/></svg>

<svg  viewBox="0 0 24 24" fill="currentColor"><path  d="M23,12L19,8V11H10V13H19V16M1,18V6C1,4.89 1.9,4 3,4H15A2,2 0 0,1 17,6V9H15V6H3V18H15V15H17V18A2,2 0 0,1 15,20H3A2,2 0 0,1 1,18Z"/></svg>
